src/assets/images/logos/logo-05.svg

<svg height="40" viewBox="0 0 175 40" width="175" xmlns="http://www.w3.org/2000/svg" xmlns:xlink="http://www.w3.org/1999/xlink"><defs><path id="a" d="m52.705 17.14c-.2200011-.2800014-.5074982-.5024992-.8625-.6675s-.6974983-.2475-1.0275-.2475c-.1700008 0-.3424991.0149998-.5175.045-.1750009.0300001-.3324993.0874996-.4725.1725s-.2574995.1949993-.3525.33-.1425.3074989-.1425.5175c0 .1800009.0374996.3299994.1125.45s.1849993.2249995.33.315c.1450007.0900004.317499.1724996.5175.2475s.4249988.1524996.675.2325c.3600018.1200006.7349981.2524993 1.125.3975.390002.1450007.7449984.3374988 1.065.5775s.584999.5374982.795.8925c.2100011.3550018.315.7974973.315 1.3275 0 .610003-.1124989 1.1374978-.3375 1.5825s-.5274981.8124986-.9075 1.1025-.8149975.5049993-1.305.645c-.4900024.1400007-.9949974.21-1.515.21-.7600038 0-1.4949964-.1324987-2.205-.3975-.7100035-.2650013-1.2999976-.6424975-1.77-1.1325l1.68-1.71c.2600013.3200016.6024979.5874989 1.0275.8025s.8474979.3225 1.2675.3225c.190001 0 .3749991-.0199998.555-.06s.3374993-.1049996.4725-.195.2424996-.2099993.3225-.36c.0800004-.1500008.12-.329999.12-.54 0-.200001-.0499995-.3699993-.15-.51s-.2424991-.2674994-.4275-.3825-.4149986-.2199995-.69-.315-.5874982-.1974995-.9375-.3075c-.3400017-.1100006-.6724984-.2399993-.9975-.39-.3250016-.1500008-.6149987-.3424988-.87-.5775s-.4599992-.5199983-.615-.855-.2325-.7424976-.2325-1.2225c0-.590003.1199988-1.0949979.36-1.515s.5549981-.7649987.945-1.035c.390002-.2700014.8299976-.4674994 1.32-.5925.4900025-.1250006.9849975-.1875 1.485-.1875.600003 0 1.2124969.1099989 1.8375.33s1.1724977.5449978 1.6425.975zm14.31.51c0 .6200031-.1149988 1.1424979-.345 1.5675-.2300011.4250021-.539998.7674987-.93 1.0275-.3900019.2600013-.8399974.4499994-1.35.57-.5100025.1200006-1.0399972.18-1.59.18h-1.275v4.005h-2.565v-10.62h3.9c.5800029 0 1.1224975.0574994 1.6275.1725s.9449981.2999987 1.32.555.6699989.5899979.885 1.005.3225.9274969.3225 1.5375zm-2.565.015c0-.2500013-.0499995-.4549992-.15-.615s-.2349992-.2849996-.405-.375c-.1700009-.0900005-.3624989-.1499999-.5775-.18-.2150011-.0300002-.4374989-.045-.6675-.045h-1.125v2.505h1.08c.2400012 0 .4699989-.0199998.69-.06s.4174991-.1099995.5925-.21.3124995-.2324992.4125-.3975.15-.3724988.15-.6225zm13.41 7.335-.825-2.085h-4.11l-.78 2.085h-2.79l4.455-10.62h2.49l4.41 10.62zm-2.85-7.785-1.35 3.645h2.67zm18.66 6.315c-.4700023.5400027-1.0499965.9674984-1.74 1.2825-.6900034.3150016-1.4849955.4725-2.385.4725-.8200041 0-1.5774965-.1349986-2.2725-.405-.6950035-.2700013-1.2974974-.6524975-1.8075-1.1475-.5100025-.4950025-.9099985-1.0874965-1.2-1.7775-.2900014-.6900035-.435-1.4499959-.435-2.28 0-.8500043.1474985-1.6199965.4425-2.31.2950015-.6900034.7024974-1.2774976 1.2225-1.7625s1.1299965-.8574987 1.83-1.1175 1.454996-.39 2.265-.39c.7500038 0 1.4874964.1324987 2.2125.3975s1.3124978.6524975 1.7625 1.1625l-1.74 1.74c-.2400012-.3300017-.554998-.5749992-.945-.735-.3900019-.1600008-.7899979-.24-1.2-.24-.4500022 0-.8624981.0824992-1.2375.2475s-.6974986.3924986-.9675.6825c-.2700013.2900014-.4799992.632498-.63 1.0275-.1500007.395002-.225.8274977-.225 1.2975 0 .4800024.0749993.919998.225 1.32.1500008.400002.3574987.7424986.6225 1.0275s.5824982.5074992.9525.6675c.3700019.1600008.7749978.24 1.215.24.5100026 0 .9549981-.099999 1.335-.3s.6849989-.4599984.915-.78zm4.095 1.47v-10.62h7.14v2.175h-4.665v1.995h4.41v2.055h-4.41v2.205h4.935v2.19zm16.65-8.43v8.43h-2.565v-8.43h-3v-2.19h8.565v2.19zm7.17 8.43v-10.62h2.58v10.62zm17.4 0 .06-7.515h-.045l-2.76 7.515h-1.8l-2.685-7.515h-.045l.06 7.515h-2.415v-10.62h3.645l2.415 6.81h.06l2.31-6.81h3.705v10.62zm7.695 0v-10.62h7.14v2.175h-4.665v1.995h4.41v2.055h-4.41v2.205h4.935v2.19zm-125.6801128-20.00004511c8.2845113 0 15 6.71571431 15 15.00000001s-6.7154887 15-15 15c-8.2840601 0-14.99999998-6.7157143-14.99999998-15s6.71593988-15.00000001 14.99999998-15.00000001zm9.7684963 23.17375941c1.6290225-1.9434587 2.6880451-4.3777444 2.9233082-7.0457143h-3.8447368c-.2043609 1.6188722-.841579 3.1019549-1.7936842 4.3303759zm-22.46007523-7.0457143c.23526316 2.6679699 1.29451128 5.1022556 2.92330823 7.0457143l2.7153384-2.7153384c-.9523308-1.2281954-1.5895489-2.7115037-1.7939098-4.3303759zm2.92330823-9.3015789c-1.62879695 1.9434586-2.68804507 4.3777443-2.92330823 7.0459398h3.84473683c.2043609-1.6190977.841579-3.102406 1.7939098-4.3308271zm10.8960903 17.0206015v3.8447368c2.6681955-.2352632 5.1024812-1.2945113 7.0459398-2.9233083l-2.7151128-2.7153383c-1.2286466.9521052-2.7117293 1.5895489-4.330827 1.7939098zm-6.5860151-1.7936843-2.7153383 2.7151128c1.9434586 1.628797 4.3777443 2.6880451 7.0457143 2.9233083v-3.8447368c-1.6188722-.2043609-3.1021805-.8418046-4.330376-1.7936843zm4.330376-15.9002255v-3.84473686c-2.66797.23526316-5.1022557 1.29451128-7.0457143 2.92330826l2.7153383 2.7151128c1.2284211-.9521053 2.7117294-1.5893233 4.330376-1.7936842zm6.5864661 1.7939098 2.7151128-2.7153384c-1.9434586-1.62902255-4.3777443-2.6880451-7.0459398-2.92330826v3.84473686c1.6190977.2043609 3.1021804.8415789 4.330827 1.7939098zm7.2331579 5.9253383c-.2352631-2.6681955-1.2942857-5.1024812-2.9233082-7.0459398l-2.7151128 2.7153383c.9521052 1.2284211 1.5893233 2.7115038 1.7936842 4.3306015zm-12.6918045 7.7925564c3.6751128 0 6.6649624-2.9898496 6.6649624-6.6649624 0-3.6748872-2.9898496-6.6647369-6.6649624-6.6647369s-6.6647368 2.9898497-6.6647368 6.6647369c0 3.6751128 2.989624 6.6649624 6.6647368 6.6649624z"/><mask id="b" fill="#fff"><use fill="none" xlink:href="#a"/></mask></defs><g fill="none" fill-rule="evenodd"><path d="m0 0h175v40h-175z"/><g fill="#fff"><use xlink:href="#a"/><g mask="url(#b)"><path d="m0 0h175v40h-175z"/></g></g></g></svg>

<?xml version="1.0" encoding="UTF-8"?>
<svg width="175px" height="40px" viewBox="0 0 175 40" version="1.1" xmlns="http://www.w3.org/2000/svg" xmlns:xlink="http://www.w3.org/1999/xlink">
    <!-- Generator: Sketch 49 (51002) - http://www.bohemiancoding.com/sketch -->
    <title>Brand/Logo/logo-05</title>
    <desc>Created with Sketch.</desc>
    <defs>
        <path d="M52.705,17.14 C52.4849989,16.8599986 52.1975018,16.6375008 51.8425,16.4725 C51.4874982,16.3074992 51.1450017,16.225 50.815,16.225 C50.6449992,16.225 50.4725009,16.2399998 50.2975,16.27 C50.1224991,16.3000001 49.9650007,16.3574996 49.825,16.4425 C49.6849993,16.5275004 49.5675005,16.6374993 49.4725,16.7725 C49.3774995,16.9075007 49.33,17.0799989 49.33,17.29 C49.33,17.4700009 49.3674996,17.6199994 49.4425,17.74 C49.5175004,17.8600006 49.6274993,17.9649995 49.7725,18.055 C49.9175007,18.1450004 50.089999,18.2274996 50.29,18.3025 C50.490001,18.3775004 50.7149988,18.4549996 50.965,18.535 C51.3250018,18.6550006 51.6999981,18.7874993 52.09,18.9325 C52.480002,19.0775007 52.8349984,19.2699988 53.155,19.51 C53.4750016,19.7500012 53.739999,20.0474982 53.95,20.4025 C54.1600011,20.7575018 54.265,21.1999973 54.265,21.73 C54.265,22.340003 54.1525011,22.8674978 53.9275,23.3125 C53.7024989,23.7575022 53.4000019,24.1249986 53.02,24.415 C52.6399981,24.7050014 52.2050025,24.9199993 51.715,25.06 C51.2249976,25.2000007 50.7200026,25.27 50.2,25.27 C49.4399962,25.27 48.7050036,25.1375013 47.995,24.8725 C47.2849965,24.6074987 46.6950024,24.2300025 46.225,23.74 L47.905,22.03 C48.1650013,22.3500016 48.5074979,22.6174989 48.9325,22.8325 C49.3575021,23.0475011 49.7799979,23.155 50.2,23.155 C50.390001,23.155 50.5749991,23.1350002 50.755,23.095 C50.9350009,23.0549998 51.0924993,22.9900004 51.2275,22.9 C51.3625007,22.8099996 51.4699996,22.6900007 51.55,22.54 C51.6300004,22.3899992 51.67,22.210001 51.67,22 C51.67,21.799999 51.6200005,21.6300007 51.52,21.49 C51.4199995,21.3499993 51.2775009,21.2225006 51.0925,21.1075 C50.9074991,20.9924994 50.6775014,20.8875005 50.4025,20.7925 C50.1274986,20.6974995 49.8150018,20.5950005 49.465,20.485 C49.1249983,20.3749994 48.7925016,20.2450007 48.4675,20.095 C48.1424984,19.9449992 47.8525013,19.7525012 47.5975,19.5175 C47.3424987,19.2824988 47.1375008,18.9975017 46.9825,18.6625 C46.8274992,18.3274983 46.75,17.9200024 46.75,17.44 C46.75,16.849997 46.8699988,16.3450021 47.11,15.925 C47.3500012,15.5049979 47.6649981,15.1600013 48.055,14.89 C48.445002,14.6199986 48.8849976,14.4225006 49.375,14.2975 C49.8650025,14.1724994 50.3599975,14.11 50.86,14.11 C51.460003,14.11 52.0724969,14.2199989 52.6975,14.44 C53.3225031,14.6600011 53.8699977,14.9849978 54.34,15.415 L52.705,17.14 Z M67.015,17.65 C67.015,18.2700031 66.9000012,18.7924979 66.67,19.2175 C66.4399989,19.6425021 66.130002,19.9849987 65.74,20.245 C65.3499981,20.5050013 64.9000026,20.6949994 64.39,20.815 C63.8799975,20.9350006 63.3500028,20.995 62.8,20.995 L61.525,20.995 L61.525,25 L58.96,25 L58.96,14.38 L62.86,14.38 C63.4400029,14.38 63.9824975,14.4374994 64.4875,14.5525 C64.9925025,14.6675006 65.4324981,14.8524987 65.8075,15.1075 C66.1825019,15.3625013 66.4774989,15.6974979 66.6925,16.1125 C66.9075011,16.5275021 67.015,17.0399969 67.015,17.65 Z M64.45,17.665 C64.45,17.4149987 64.4000005,17.2100008 64.3,17.05 C64.1999995,16.8899992 64.0650008,16.7650004 63.895,16.675 C63.7249991,16.5849995 63.5325011,16.5250001 63.3175,16.495 C63.1024989,16.4649998 62.8800011,16.45 62.65,16.45 L61.525,16.45 L61.525,18.955 L62.605,18.955 C62.8450012,18.955 63.0749989,18.9350002 63.295,18.895 C63.5150011,18.8549998 63.7124991,18.7850005 63.8875,18.685 C64.0625009,18.5849995 64.1999995,18.4525008 64.3,18.2875 C64.4000005,18.1224992 64.45,17.9150012 64.45,17.665 Z M77.86,25 L77.035,22.915 L72.925,22.915 L72.145,25 L69.355,25 L73.81,14.38 L76.3,14.38 L80.71,25 L77.86,25 Z M75.01,17.215 L73.66,20.86 L76.33,20.86 L75.01,17.215 Z M93.67,23.53 C93.1999977,24.0700027 92.6200035,24.4974984 91.93,24.8125 C91.2399966,25.1275016 90.4450045,25.285 89.545,25.285 C88.7249959,25.285 87.9675035,25.1500014 87.2725,24.88 C86.5774965,24.6099987 85.9750026,24.2275025 85.465,23.7325 C84.9549975,23.2374975 84.5550015,22.6450035 84.265,21.955 C83.9749986,21.2649965 83.83,20.5050041 83.83,19.675 C83.83,18.8249957 83.9774985,18.0550035 84.2725,17.365 C84.5675015,16.6749966 84.9749974,16.0875024 85.495,15.6025 C86.0150026,15.1174976 86.6249965,14.7450013 87.325,14.485 C88.0250035,14.2249987 88.779996,14.095 89.59,14.095 C90.3400038,14.095 91.0774964,14.2274987 91.8025,14.4925 C92.5275036,14.7575013 93.1149978,15.1449975 93.565,15.655 L91.825,17.395 C91.5849988,17.0649983 91.270002,16.8200008 90.88,16.66 C90.4899981,16.4999992 90.0900021,16.42 89.68,16.42 C89.2299978,16.42 88.8175019,16.5024992 88.4425,16.6675 C88.0674981,16.8325008 87.7450014,17.0599986 87.475,17.35 C87.2049987,17.6400014 86.9950008,17.982498 86.845,18.3775 C86.6949993,18.772502 86.62,19.2049977 86.62,19.675 C86.62,20.1550024 86.6949993,20.594998 86.845,20.995 C86.9950008,21.395002 87.2024987,21.7374986 87.4675,22.0225 C87.7325013,22.3075014 88.0499982,22.5299992 88.42,22.69 C88.7900019,22.8500008 89.1949978,22.93 89.635,22.93 C90.1450026,22.93 90.5899981,22.830001 90.97,22.63 C91.3500019,22.429999 91.6549989,22.1700016 91.885,21.85 L93.67,23.53 Z M97.765,25 L97.765,14.38 L104.905,14.38 L104.905,16.555 L100.24,16.555 L100.24,18.55 L104.65,18.55 L104.65,20.605 L100.24,20.605 L100.24,22.81 L105.175,22.81 L105.175,25 L97.765,25 Z M114.415,16.57 L114.415,25 L111.85,25 L111.85,16.57 L108.85,16.57 L108.85,14.38 L117.415,14.38 L117.415,16.57 L114.415,16.57 Z M121.585,25 L121.585,14.38 L124.165,14.38 L124.165,25 L121.585,25 Z M138.985,25 L139.045,17.485 L139,17.485 L136.24,25 L134.44,25 L131.755,17.485 L131.71,17.485 L131.77,25 L129.355,25 L129.355,14.38 L133,14.38 L135.415,21.19 L135.475,21.19 L137.785,14.38 L141.49,14.38 L141.49,25 L138.985,25 Z M146.68,25 L146.68,14.38 L153.82,14.38 L153.82,16.555 L149.155,16.555 L149.155,18.55 L153.565,18.55 L153.565,20.605 L149.155,20.605 L149.155,22.81 L154.09,22.81 L154.09,25 L146.68,25 Z M20.9998872,4.99995489 C29.2843985,4.99995489 35.9998872,11.7156692 35.9998872,19.9999549 C35.9998872,28.2842406 29.2843985,34.9999549 20.9998872,34.9999549 C12.7158271,34.9999549 5.99988722,28.2842406 5.99988722,19.9999549 C5.99988722,11.7156692 12.7158271,4.99995489 20.9998872,4.99995489 Z M30.7683835,28.1737143 C32.397406,26.2302556 33.4564286,23.7959699 33.6916917,21.128 L29.8469549,21.128 C29.642594,22.7468722 29.0053759,24.2299549 28.0532707,25.4583759 L30.7683835,28.1737143 Z M8.30830827,21.128 C8.54357143,23.7959699 9.60281955,26.2302556 11.2316165,28.1737143 L13.9469549,25.4583759 C12.9946241,24.2301805 12.357406,22.7468722 12.1530451,21.128 L8.30830827,21.128 Z M11.2316165,11.8264211 C9.60281955,13.7698797 8.54357143,16.2041654 8.30830827,18.8723609 L12.1530451,18.8723609 C12.357406,17.2532632 12.9946241,15.7699549 13.9469549,14.5415338 L11.2316165,11.8264211 Z M22.1277068,28.8470226 L22.1277068,32.6917594 C24.7959023,32.4564962 27.230188,31.3972481 29.1736466,29.7684511 L26.4585338,27.0531128 C25.2298872,28.005218 23.7468045,28.6426617 22.1277068,28.8470226 Z M15.5416917,27.0533383 L12.8263534,29.7684511 C14.769812,31.3972481 17.2040977,32.4564962 19.8720677,32.6917594 L19.8720677,28.8470226 C18.2531955,28.6426617 16.7698872,28.005218 15.5416917,27.0533383 Z M19.8720677,11.1531128 L19.8720677,7.30837594 C17.2040977,7.5436391 14.769812,8.60288722 12.8263534,10.2316842 L15.5416917,12.946797 C16.7701128,11.9946917 18.2534211,11.3574737 19.8720677,11.1531128 Z M26.4585338,12.9470226 L29.1736466,10.2316842 C27.230188,8.60266165 24.7959023,7.5436391 22.1277068,7.30837594 L22.1277068,11.1531128 C23.7468045,11.3574737 25.2298872,11.9946917 26.4585338,12.9470226 Z M33.6916917,18.8723609 C33.4564286,16.2041654 32.397406,13.7698797 30.7683835,11.8264211 L28.0532707,14.5417594 C29.0053759,15.7701805 29.642594,17.2532632 29.8469549,18.8723609 L33.6916917,18.8723609 Z M20.9998872,26.6649173 C24.675,26.6649173 27.6648496,23.6750677 27.6648496,19.9999549 C27.6648496,16.3250677 24.675,13.335218 20.9998872,13.335218 C17.3247744,13.335218 14.3351504,16.3250677 14.3351504,19.9999549 C14.3351504,23.6750677 17.3247744,26.6649173 20.9998872,26.6649173 Z" id="path-1"></path>
    </defs>
    <g id="Brand/Logo/logo-05" stroke="none" stroke-width="1" fill="none" fill-rule="evenodd">
        <rect id="#" x="0" y="0" width="175" height="40"></rect>
        <mask id="mask-2" fill="white">
            <use xlink:href="#path-1"></use>
        </mask>
        <use id="Mask" fill="#FFFFFF" xlink:href="#path-1"></use>
        <g id="Brand/Color/White" mask="url(#mask-2)" fill="#FFFFFF">
            <rect id="Color" x="0" y="0" width="175" height="40"></rect>
        </g>
    </g>
</svg>
